packages/core/src/svgs/tokens/branded/RSS3.svg

<svg width="24" height="24" viewBox="0 0 24 24" fill="none" xmlns="http://www.w3.org/2000/svg">
<path d="M7.83333 10.8836C7.82916 11.6211 7.28333 12.2169 6.52916 12.2087L7.75416 14.0836H8.25V14.5003H6.58333V14.0836H7.125L5.96667 12.2087H4.91667V14.0836H5.33333V14.5003H4.08333V14.0836H4.5V9.91694H4.08333V9.50028H6.42916C7.22083 9.50028 7.825 10.0795 7.83333 10.8836ZM6.4 9.91694H4.91667V11.792H6.5C6.73841 11.7839 6.96504 11.6864 7.13487 11.5189C7.3047 11.3514 7.40529 11.1261 7.41667 10.8878C7.43749 10.3752 6.91666 9.91694 6.4 9.91694ZM10.7083 11.6545C11.2209 11.7836 11.9 11.9836 12.2084 12.4128C12.2917 12.5336 12.35 12.667 12.375 12.8128C12.4167 12.9503 12.425 13.0961 12.4083 13.2419C12.3834 13.4086 12.325 13.5628 12.2417 13.7044C12.1583 13.8461 12.0583 13.9669 11.9333 14.0711C11.569 14.366 11.11 14.5186 10.6416 14.5003H10.6084C10.0525 14.4827 9.51746 14.2852 9.08333 13.9378V14.5003H8.66666V12.8336H9.08333V13.2419C9.42083 13.7837 10.1833 14.0836 10.775 14.0836C11.325 14.0753 12.1167 13.6127 12 12.9753C11.8833 12.442 11.0625 12.1961 10.6084 12.0878L10.3667 12.0211L10.3208 12.0086C9.64583 11.8336 8.85 11.6294 8.875 10.7586C8.85833 9.87945 9.65416 9.50028 10.4042 9.50028C10.9041 9.51278 11.1833 9.67112 11.5833 9.96278V9.50028H12V11.1669H11.5833V10.6253C11.225 10.1253 10.8875 9.92528 10.4042 9.91694C9.93749 9.91694 9.33333 10.2128 9.29167 10.7586C9.32499 11.2794 9.84999 11.417 10.3125 11.5336C10.4584 11.5753 10.5958 11.6086 10.7083 11.6545ZM19.1667 11.8211C19.6375 11.9836 19.9166 12.4128 19.9166 13.0419C19.9166 13.9378 19.1375 14.5003 18.2042 14.5003C17.9012 14.4985 17.6017 14.436 17.3233 14.3165C17.0449 14.1969 16.7933 14.0228 16.5834 13.8045L16.8958 13.4086L16.925 13.4419C17.083 13.6318 17.2786 13.7868 17.4995 13.8972C17.7204 14.0077 17.9617 14.0711 18.2083 14.0836C18.8917 14.0836 19.475 13.6378 19.5042 13.0086C19.5042 12.4461 18.9875 12.0003 18.3625 12.0003H17.8333V11.5836H18.3292C18.8292 11.5836 19.2917 11.2919 19.2917 10.7919C19.2917 10.2628 18.825 9.91694 18.1708 9.91694C17.6416 9.91694 17.3625 10.1962 17.175 10.4587L16.8 10.2294C16.9416 9.99471 17.1443 9.80286 17.3865 9.67443C17.6287 9.546 17.9012 9.4858 18.175 9.50028C19.075 9.50028 19.7084 9.88778 19.7084 10.7503C19.7084 11.1461 19.575 11.5836 19.1667 11.8169V11.8211ZM16.375 12.4128C16.0666 11.9836 15.3875 11.7878 14.875 11.6545C14.7625 11.6086 14.625 11.5711 14.4792 11.5336C14.0209 11.417 13.4917 11.2794 13.4583 10.7586C13.5 10.217 14.1042 9.91694 14.5709 9.91694C15.0542 9.92528 15.3917 10.1253 15.75 10.6253V11.1669H16.1667V9.50028H15.75V9.96278C15.35 9.67112 15.0709 9.51278 14.5709 9.50028C13.8208 9.50028 13.0292 9.87529 13.0417 10.7586C13.0167 11.6294 13.8125 11.8336 14.4875 12.0086L14.5333 12.0211L14.775 12.0878C15.2333 12.1961 16.05 12.442 16.1667 12.9753C16.2833 13.6127 15.4917 14.0753 14.9417 14.0836C14.35 14.0836 13.5875 13.7795 13.25 13.2419V12.8336H12.8333V14.5003H13.25V13.9378C13.6841 14.2852 14.2192 14.4827 14.775 14.5003H14.8084C15.0791 14.5003 15.6583 14.4669 16.1 14.0711C16.225 13.9669 16.3291 13.8461 16.4084 13.7044C16.4917 13.5628 16.55 13.4045 16.575 13.2419C16.5916 13.0961 16.5792 12.9503 16.5417 12.8128C16.5167 12.667 16.4583 12.5336 16.375 12.4128ZM2 11.5836H3.25V12.4169H2V11.5836ZM20.75 11.5836H22V12.4169H20.75V11.5836Z" fill="#0B70FF"/>
</svg>

<svg xmlns="http://www.w3.org/2000/svg" width="24" height="24" fill="none" viewBox="0 0 24 24">
    <path fill="#0B70FF" d="M7.833 10.884c-.004.737-.55 1.333-1.304 1.325l1.225 1.875h.496v.416H6.583v-.416h.542l-1.158-1.875h-1.05v1.875h.416v.416h-1.25v-.416H4.5V9.917h-.417V9.5H6.43c.792 0 1.396.58 1.404 1.384M6.4 9.917H4.917v1.875H6.5a.95.95 0 0 0 .917-.904c.02-.513-.5-.971-1.017-.971m4.308 1.738c.513.129 1.192.329 1.5.758q.128.18.167.4c.042.137.05.283.033.429q-.04.25-.166.462a1.4 1.4 0 0 1-.309.367 1.93 1.93 0 0 1-1.291.43h-.034a2.57 2.57 0 0 1-1.525-.563v.562h-.416v-1.666h.416v.408c.338.542 1.1.842 1.692.842.55-.009 1.342-.471 1.225-1.109-.117-.533-.937-.779-1.392-.887l-.241-.067-.046-.012c-.675-.175-1.471-.38-1.446-1.25-.017-.88.78-1.259 1.53-1.259.5.013.778.171 1.178.463V9.5H12v1.667h-.417v-.542c-.358-.5-.696-.7-1.179-.708-.467 0-1.07.296-1.112.842.033.52.558.658 1.02.775.146.041.284.075.396.12m8.459.166c.47.163.75.592.75 1.22 0 .897-.78 1.46-1.713 1.46a2.27 2.27 0 0 1-1.62-.696l.312-.396.029.033a1.8 1.8 0 0 0 1.283.642c.684 0 1.267-.446 1.296-1.075 0-.563-.517-1.009-1.142-1.009h-.529v-.416h.496c.5 0 .963-.292.963-.792 0-.53-.467-.875-1.121-.875-.53 0-.808.28-.996.542l-.375-.23a1.51 1.51 0 0 1 1.375-.729c.9 0 1.533.388 1.533 1.25 0 .396-.133.834-.541 1.067zm-2.792.592c-.308-.43-.988-.625-1.5-.758a3 3 0 0 0-.396-.121c-.458-.117-.987-.255-1.02-.775.041-.542.645-.842 1.112-.842.483.008.82.208 1.179.708v.542h.417V9.5h-.417v.463c-.4-.292-.68-.45-1.18-.463-.75 0-1.54.375-1.528 1.259-.025.87.77 1.075 1.446 1.25l.045.012.242.067c.458.108 1.275.354 1.392.887.116.638-.675 1.1-1.225 1.109-.592 0-1.354-.304-1.692-.842v-.408h-.417V14.5h.417v-.562c.434.347.97.545 1.525.562h.033c.271 0 .85-.033 1.292-.429q.19-.155.308-.367c.084-.141.142-.3.167-.462a1.1 1.1 0 0 0-.033-.43 1 1 0 0 0-.167-.4M2 11.583h1.25v.834H2zm18.75 0H22v.834h-1.25z"/>
</svg>
